icons/guide.svg

<svg width="24" height="24" viewBox="0 0 24 24" fill="none" xmlns="http://www.w3.org/2000/svg">
<path fill-rule="evenodd" clip-rule="evenodd" d="M17.6173 3.07615C17.991 2.92137 18.4211 3.00692 18.7071 3.29292L20.7071 5.29292C21.0976 5.68345 21.0976 6.31661 20.7071 6.70714L18.7071 8.70714C18.4211 8.99313 17.991 9.07869 17.6173 8.92391C17.2436 8.76913 17 8.40449 17 8.00003V7.00003H14C13.4477 7.00003 13 7.44774 13 8.00003V16C13 17.6569 11.6569 19 10 19H7.82929C7.41746 20.1652 6.30622 21 5 21C3.34315 21 2 19.6569 2 18C2 16.3432 3.34315 15 5 15C6.30622 15 7.41746 15.8348 7.82929 17H10C10.5523 17 11 16.5523 11 16V8.00003C11 6.34317 12.3431 5.00003 14 5.00003H17V4.00003C17 3.59557 17.2436 3.23093 17.6173 3.07615ZM5 17C4.44772 17 4 17.4477 4 18C4 18.5523 4.44772 19 5 19C5.55228 19 6 18.5523 6 18C6 17.4477 5.55228 17 5 17Z" fill="black"/>
</svg>

<svg
  width="24"
  height="24"
  viewBox="0 0 24 24"
  xmlns="http://www.w3.org/2000/svg"
>
  <path
    fill-rule="evenodd"
    clip-rule="evenodd"
    d="M17.617 3.076a1 1 0 0 1 1.09.217l2 2a1 1 0 0 1 0 1.414l-2 2A1 1 0 0 1 17 8V7h-3a1 1 0 0 0-1 1v8a3 3 0 0 1-3 3H7.83a3.001 3.001 0 1 1 0-2H10a1 1 0 0 0 1-1V8a3 3 0 0 1 3-3h3V4a1 1 0 0 1 .617-.924zM5 17a1 1 0 1 0 0 2 1 1 0 0 0 0-2z"
  />
</svg>
